svg/color/pbron.svg

<svg width="40" height="40" viewBox="0 0 40 40" fill="none" xmlns="http://www.w3.org/2000/svg">
<g clip-path="url(#clip0_819_3544)">
<path d="M20 0C31.0457 0 40 8.9543 40 20C40 31.0457 31.0457 40 20 40C8.95431 40 7.90517e-06 31.0457 0 20C6.58765e-07 8.95431 8.95431 1.97595e-06 20 0Z" fill="#CCE7D9"/>
<path d="M26 6C30.4183 6 34 9.58172 34 14V26C34 30.4183 30.4183 34 26 34H14C9.58172 34 6 30.4183 6 26V14C6 9.58172 9.58172 6 14 6H26Z" fill="#008542"/>
<g clip-path="url(#clip1_819_3544)">
<path d="M12.3996 24.299H16.4006C18.1349 24.299 18.4358 23.8946 18.7878 23.5966C19.2573 23.1992 19.5104 22.261 19.2977 21.6061C19.1474 21.1425 18.7108 20.8631 18.6631 20.8484C19.2056 20.5983 19.5212 20.043 19.5582 19.9616C19.7599 19.5422 19.9139 18.7841 19.4152 18.1733C19.0526 17.7291 18.3895 17.5667 17.8364 17.5257L17.6073 17.5146H21.8906L19.9287 24.3101H21.9125L22.639 21.7346H23.7721C24.5972 21.7346 24.5205 22.25 24.5425 22.4707L24.6082 24.3654H26.4532C26.4528 24.3541 26.3687 22.2384 26.3613 22.0842C26.3357 21.5361 25.9763 21.2934 25.6682 21.2933C26.2585 21.1351 26.7717 20.5945 26.9772 20.2523C27.2155 19.855 27.3919 19.222 27.1573 18.593C26.8199 17.6806 25.943 17.5293 25.3306 17.5183H29.163V17.5146H29.1666V29.1667H10.8333V17.5146H14.3542L12.3996 24.299ZM16.518 21.4329C17.1631 21.4329 17.1999 21.6096 17.2915 21.7604C17.3795 21.9112 17.3392 22.2276 17.2769 22.338C17.1999 22.4741 17.068 22.9009 16.243 22.901H14.7759C14.7802 22.886 15.1976 21.4365 15.1976 21.4329H16.518ZM24.8869 18.8837C25.5724 18.8837 25.5983 19.3502 25.5983 19.4829C25.5983 19.792 25.327 20.4029 24.4945 20.4029H23.0237C23.0235 20.3908 23.4288 18.9274 23.4418 18.8837H24.8869ZM17.4496 18.8726C17.754 18.8727 18.029 19.0677 18.029 19.3913C18.0289 19.8253 17.6841 20.1306 17.2038 20.1306H15.5681L15.9199 18.8726H17.4496ZM29.1666 10.8334V15.2887H10.8333V10.8334H29.1666Z" fill="white"/>
</g>
</g>
<defs>
<clipPath id="clip0_819_3544">
<rect width="40" height="40" fill="white"/>
</clipPath>
<clipPath id="clip1_819_3544">
<rect width="20" height="20" fill="white" transform="translate(10 10)"/>
</clipPath>
</defs>
</svg>

<svg xmlns="http://www.w3.org/2000/svg" width="40" height="40" fill="none" viewBox="0 0 40 40"><g clip-path="url(#pbron_svg-a)"><path fill="#CCE7D9" d="M20 0c11.046 0 20 8.954 20 20s-8.954 20-20 20S0 31.046 0 20 8.954 0 20 0"/><path fill="#008542" d="M26 6a8 8 0 0 1 8 8v12a8 8 0 0 1-8 8H14a8 8 0 0 1-8-8V14a8 8 0 0 1 8-8z"/><g clip-path="url(#pbron_svg-b)"><path fill="#fff" d="M12.4 24.299h4c1.735 0 2.036-.404 2.388-.702.47-.398.722-1.336.51-1.99a1.45 1.45 0 0 0-.635-.759c.543-.25.858-.805.895-.886.202-.42.356-1.178-.143-1.789-.362-.444-1.025-.606-1.579-.647l-.229-.011h4.284l-1.962 6.795h1.984l.726-2.575h1.133c.825 0 .749.515.77.736l.066 1.894h1.845c0-.01-.084-2.127-.092-2.28-.025-.549-.385-.792-.693-.792.59-.158 1.104-.698 1.31-1.04.237-.398.414-1.031.18-1.66-.338-.912-1.215-1.064-1.827-1.075h3.832v-.003h.004v11.652H10.833V17.515h3.521zm4.118-2.866c.645 0 .682.177.773.327.088.151.048.468-.014.578-.077.136-.209.563-1.034.563h-1.467l.422-1.468zm8.369-2.55c.685 0 .711.467.711.6 0 .309-.271.92-1.104.92h-1.47c0-.012.405-1.476.418-1.52zm-7.437-.01c.304 0 .579.195.579.518 0 .434-.345.74-.825.74h-1.636l.352-1.258zm11.717-8.04v4.456H10.833v-4.456z"/></g></g><defs><clipPath id="pbron_svg-a"><path fill="#fff" d="M0 0h40v40H0z"/></clipPath><clipPath id="pbron_svg-b"><path fill="#fff" d="M10 10h20v20H10z"/></clipPath></defs></svg>
